usr/share/icons/biglinux-icons-material/64/applets/osd-rotate-flip.svg

<svg xmlns="http://www.w3.org/2000/svg" viewBox="0 0 64 64">
  <defs
     id="defs3051">
    <style
       type="text/css"
       id="current-color-scheme">
      .ColorScheme-Text {
        color:#232629;
      }
      .ColorScheme-Highlight {
        color:#3daee9;
      }
      </style>
  </defs>
  <path
     style="fill:currentColor;fill-opacity:1;stroke:none" 
     d="M 5 11 L 5 50 L 58 50 L 58 11 L 5 11 z M 8 14 L 55 14 L 55 48 L 8 48 L 8 14 z M 2 52 L 1.9335938 54.400391 C 1.8822262 56.243621 3.3550959 58 5.1992188 58 L 58.533203 58 C 60.377326 58 62 56.244337 62 54.400391 L 62 52 L 2 52 z "
     class="ColorScheme-Text"
     />
  <path
     style="fill:currentColor;fill-opacity:1;stroke:none" 
     d="M 32 20.798828 L 28.638672 24.160156 L 30.878906 24.160156 L 30.878906 39.839844 L 28.638672 39.839844 L 32 43.199219 L 35.359375 39.839844 L 33.119141 39.839844 L 33.119141 24.160156 L 35.359375 24.160156 L 32 20.798828 z "
     class="ColorScheme-Highlight"
     />
</svg>

<svg xmlns="http://www.w3.org/2000/svg" viewBox="0 0 64 64"><path d="M5 11v39h53V11H5zm3 3h47v34H8V14zM2 52l-.066 2.4C1.882 56.244 3.355 58 5.199 58h53.334C60.377 58 62 56.244 62 54.4V52H2z" style="fill:currentColor;fill-opacity:1;stroke:none;color:#232629"/><path d="m32 20.799-3.361 3.361h2.24v15.68h-2.24L32 43.2l3.36-3.36h-2.24V24.16h2.24L32 20.8z" style="fill:currentColor;fill-opacity:1;stroke:none;color:#3daee9"/></svg>
